synths/sCOIN.svg

<svg width="42" height="42" viewBox="0 0 42 42" fill="none" xmlns="http://www.w3.org/2000/svg">
<g clip-path="url(#clip0_7277_57850)">
<mask id="mask0_7277_57850" style="mask-type:alpha" maskUnits="userSpaceOnUse" x="0" y="0" width="42" height="42">
<circle cx="21" cy="21" r="21" fill="url(#paint0_linear_7277_57850)"/>
</mask>
<g mask="url(#mask0_7277_57850)">
<circle cx="21" cy="21" r="21" fill="#34EDB3"/>
<circle cx="21" cy="21" r="18.2" fill="white"/>
</g>
<circle cx="21" cy="21" r="16.1" fill="#06061B"/>
<circle cx="21" cy="21" r="16.1" fill="#0052FF"/>
<path fill-rule="evenodd" clip-rule="evenodd" d="M23.5834 10.3423C25.056 10.7238 26.019 11.1585 27.2391 11.9924C28.6365 12.9473 30.0284 14.5446 30.7979 16.076C31.2803 17.0361 31.7366 18.542 31.8938 19.6928L31.9508 20.1097L29.176 20.0866L26.4013 20.0635L26.2566 19.5385C25.8719 18.1422 24.8268 16.8447 23.5531 16.182C22.7005 15.7385 21.968 15.5598 21.0022 15.5598C18.6552 15.5598 16.7302 16.9249 15.8538 19.211C15.6534 19.7338 15.6272 19.9305 15.6242 20.9385C15.6207 22.1509 15.7063 22.5488 16.1703 23.476C16.8488 24.8318 18.1702 25.87 19.7299 26.2725C20.391 26.4433 21.5815 26.4433 22.3047 26.2729C23.5893 25.9701 24.951 24.9726 25.6289 23.8379C25.9473 23.3049 26.3397 22.306 26.3397 22.0283C26.3397 21.8621 26.4197 21.8572 29.138 21.8572H31.9363L31.8873 22.2728C31.8091 22.9342 31.4305 24.413 31.1842 25.0194C29.9311 28.103 27.4026 30.4423 24.2546 31.4301C21.2173 32.383 17.9334 31.9544 15.1629 30.2434C14.1324 29.6068 12.5277 28.0271 11.8532 26.9848C9.78003 23.7819 9.48909 19.8178 11.074 16.3675C12.0786 14.1804 14.2004 12.0586 16.3875 11.054C17.1721 10.6936 18.2848 10.3405 19.1578 10.1746C20.2323 9.97068 22.4772 10.0557 23.5834 10.3423Z" fill="white"/>
</g>
<defs>
<linearGradient id="paint0_linear_7277_57850" x1="21" y1="0" x2="21" y2="61.4091" gradientUnits="userSpaceOnUse">
<stop stop-color="#08021E"/>
<stop offset="1" stop-color="#1F0777"/>
</linearGradient>
<clipPath id="clip0_7277_57850">
<rect width="42" height="42" fill="white"/>
</clipPath>
</defs>
</svg>

<svg xmlns="http://www.w3.org/2000/svg" width="42" height="42" fill="none"><g clip-path="url(#a)"><mask id="c" width="42" height="42" x="0" y="0" maskUnits="userSpaceOnUse" style="mask-type:alpha"><circle cx="21" cy="21" r="21" fill="url(#b)"/></mask><g mask="url(#c)"><circle cx="21" cy="21" r="21" fill="#34EDB3"/><circle cx="21" cy="21" r="18.2" fill="#fff"/></g><circle cx="21" cy="21" r="16.1" fill="#06061B"/><circle cx="21" cy="21" r="16.1" fill="#0052FF"/><path fill="#fff" fill-rule="evenodd" d="M23.583 10.342c1.473.382 2.436.816 3.656 1.65 1.398.955 2.79 2.553 3.559 4.084.482.96.939 2.466 1.096 3.617l.057.417-2.775-.023-2.775-.023-.144-.526c-.385-1.396-1.43-2.693-2.704-3.356-.852-.443-1.585-.622-2.55-.622-2.348 0-4.273 1.365-5.15 3.651-.2.523-.226.72-.229 1.728-.003 1.212.082 1.61.546 2.537.679 1.356 2 2.394 3.56 2.797.661.17 1.851.17 2.575 0 1.284-.303 2.646-1.3 3.324-2.435.318-.533.71-1.532.71-1.81 0-.166.08-.17 2.799-.17h2.798l-.049.415c-.078.661-.457 2.14-.703 2.746a11.044 11.044 0 0 1-6.93 6.411c-3.037.953-6.32.524-9.091-1.187-1.03-.636-2.635-2.216-3.31-3.258-2.073-3.203-2.364-7.167-.779-10.617 1.005-2.188 3.126-4.31 5.313-5.314.785-.36 1.898-.713 2.77-.88 1.075-.203 3.32-.118 4.426.168Z" clip-rule="evenodd"/></g><defs><linearGradient id="b" x1="21" x2="21" y1="0" y2="61.409" gradientUnits="userSpaceOnUse"><stop stop-color="#08021E"/><stop offset="1" stop-color="#1F0777"/></linearGradient><clipPath id="a"><path fill="#fff" d="M0 0h42v42H0z"/></clipPath></defs></svg>
